packages/kaspersky-hexa-ui-icons/src/iconsSVGs/48/CameraWeb.svg

<svg xmlns="http://www.w3.org/2000/svg" width="48" height="48" fill="none" viewBox="0 0 48 48"><path fill="currentColor" fill-rule="evenodd" d="M39.12 33.0914c6.9867-8.0693 6.4056-20.2031-1.3203-27.5678-7.7259-7.3648-19.8735-7.3648-27.5994 0-7.726 7.3647-8.307 19.4985-1.3203 27.5678L2 42.7214v5.32h44v-5.32zM24 40.0414a19.88 19.88 0 0 0 13.71-5.48l5.35 7.48H4.94l5.35-7.48a19.88 19.88 0 0 0 13.71 5.48m0-38c9.9411 0 18 8.0589 18 18s-8.0589 18-18 18-18-8.0588-18-18 8.0589-18 18-18m-20 44v-2h40v2zm20-16c3.866 0 7-3.134 7-7s-3.134-7-7-7-7 3.134-7 7 3.134 7 7 7m0-12c2.7614 0 5 2.2386 5 5s-2.2386 5-5 5-5-2.2385-5-5 2.2386-5 5-5m0 16c6.0751 0 11-4.9248 11-11s-4.9249-11-11-11-11 4.9249-11 11 4.9249 11 11 11m0-20c4.9706 0 9 4.0295 9 9s-4.0294 9-9 9-9-4.0294-9-9 4.0294-9 9-9m-3 9c0-1.6568 1.3431-3 3-3v2c-.5523 0-1 .4477-1 1s.4477 1 1 1 1-.4477 1-1h2c0 1.6569-1.3431 3-3 3s-3-1.3431-3-3m4-15h-2v-2h2z" clip-rule="evenodd"/></svg>

<svg width="48" height="48" viewBox="0 0 48 48" fill="none" xmlns="http://www.w3.org/2000/svg">
<path fill-rule="evenodd" clip-rule="evenodd" d="M39.12 33.0914C46.1067 25.0221 45.5256 12.8883 37.7997 5.52356C30.0738 -1.84119 17.9262 -1.84119 10.2003 5.52356C2.47437 12.8883 1.89327 25.0221 8.88 33.0914L2 42.7214V48.0414H46V42.7214L39.12 33.0914ZM24 40.0414C29.104 40.0425 34.0129 38.0803 37.71 34.5614L43.06 42.0414H4.94L10.29 34.5614C13.9871 38.0803 18.896 40.0425 24 40.0414ZM24 2.04143C33.9411 2.04143 42 10.1003 42 20.0414C42 29.9826 33.9411 38.0414 24 38.0414C14.0589 38.0414 6 29.9826 6 20.0414C6 10.1003 14.0589 2.04143 24 2.04143ZM4 46.0414V44.0414H44V46.0414H4ZM24 30.0414C27.866 30.0414 31 26.9074 31 23.0414C31 19.1754 27.866 16.0414 24 16.0414C20.134 16.0414 17 19.1754 17 23.0414C17 26.9074 20.134 30.0414 24 30.0414ZM24 18.0414C26.7614 18.0414 29 20.28 29 23.0414C29 25.8029 26.7614 28.0414 24 28.0414C21.2386 28.0414 19 25.8029 19 23.0414C19 20.28 21.2386 18.0414 24 18.0414ZM24 34.0414C30.0751 34.0414 35 29.1166 35 23.0414C35 16.9663 30.0751 12.0414 24 12.0414C17.9249 12.0414 13 16.9663 13 23.0414C13 29.1166 17.9249 34.0414 24 34.0414ZM24 14.0414C28.9706 14.0414 33 18.0709 33 23.0414C33 28.012 28.9706 32.0414 24 32.0414C19.0294 32.0414 15 28.012 15 23.0414C15 18.0709 19.0294 14.0414 24 14.0414ZM21 23.0414C21 21.3846 22.3431 20.0414 24 20.0414V22.0414C23.4477 22.0414 23 22.4891 23 23.0414C23 23.5937 23.4477 24.0414 24 24.0414C24.5523 24.0414 25 23.5937 25 23.0414H27C27 24.6983 25.6569 26.0414 24 26.0414C22.3431 26.0414 21 24.6983 21 23.0414ZM25 8.04143H23V6.04143H25V8.04143Z"  fill="currentColor"/>
</svg>
